app/img/icons/key-monitor.svg

<svg width="75" height="75" viewBox="0 0 75 75" fill="none" xmlns="http://www.w3.org/2000/svg">
<path d="M65.8271 58.3333H9.61669C8.21481 58.333 6.87045 57.7759 5.87927 56.7846C4.88809 55.7932 4.33127 54.4487 4.33127 53.0468V16.701C4.33127 15.2991 4.88809 13.9547 5.87927 12.9633C6.87045 11.9719 8.21481 11.4148 9.61669 11.4146H65.8271C67.2292 11.4146 68.5738 11.9715 69.5652 12.9629C70.5566 13.9543 71.1136 15.299 71.1136 16.701V53.0468C71.1136 54.4489 70.5566 55.7935 69.5652 56.7849C68.5738 57.7763 67.2292 58.3333 65.8271 58.3333V58.3333Z" stroke="black" stroke-miterlimit="10" stroke-linecap="round" stroke-linejoin="round"/>
<path d="M65.8271 58.3333H9.61669C8.21481 58.333 6.87045 57.7759 5.87927 56.7846C4.88809 55.7932 4.33127 54.4487 4.33127 53.0468V16.701C4.33127 15.2991 4.88809 13.9547 5.87927 12.9633C6.87045 11.9719 8.21481 11.4148 9.61669 11.4146H65.8271C67.2292 11.4146 68.5738 11.9715 69.5652 12.9629C70.5566 13.9543 71.1136 15.299 71.1136 16.701V53.0468C71.1136 54.4489 70.5566 55.7935 69.5652 56.7849C68.5738 57.7763 67.2292 58.3333 65.8271 58.3333V58.3333Z" stroke="#464646" stroke-miterlimit="10" stroke-linecap="round" stroke-linejoin="round"/>
<path d="M7.51355 50.5127H67.9302" stroke="#464646" stroke-miterlimit="10" stroke-linecap="round" stroke-linejoin="round"/>
<path d="M44.9823 63.498C44.9823 68.6637 54.1907 70.8335 54.1907 70.8335H21.2532C21.2532 70.8335 30.4615 68.6637 30.4615 63.498" stroke="#464646" stroke-miterlimit="10" stroke-linecap="round" stroke-linejoin="round"/>
<path d="M32.5788 32.4961L25.1219 42H20.5527L24.6742 36.517H26.0358V34.6893L29.3896 30.2389C28.6319 29.167 28.2561 27.8717 28.3227 26.5607C28.3893 25.2497 28.8942 23.9991 29.7566 23.0095C30.6189 22.0198 31.7887 21.3485 33.0782 21.1032C34.3678 20.8579 35.7023 21.0528 36.8678 21.6568C38.0333 22.2607 38.9622 23.2385 39.5054 24.4335C40.0487 25.6285 40.1748 26.9713 39.8636 28.2465C39.5523 29.5218 38.8218 30.6555 37.7892 31.4659C36.7565 32.2762 35.4816 32.7163 34.1689 32.7154C33.6316 32.7116 33.0971 32.6378 32.5788 32.4961Z" stroke="#D90002" stroke-linecap="round" stroke-linejoin="round"/>
<path d="M33.3834 32.6605L33.1183 35.8863L34.9369 37.7048L36.8834 35.7675L43.399 41.9999L53.4512 31.9477L47.0544 25.5508L49.1562 23.4855L47.3377 21.667L38.8298 22.3615" stroke="#D90002" stroke-linecap="square" stroke-linejoin="round"/>
</svg>

<svg width="75" height="75" fill="none" xmlns="http://www.w3.org/2000/svg"><path d="M65.827 58.333H9.617a5.287 5.287 0 01-5.286-5.286V16.7a5.286 5.286 0 015.286-5.286h56.21a5.286 5.286 0 015.287 5.286v36.346a5.286 5.286 0 01-5.287 5.286v0z" stroke="#000" stroke-miterlimit="10" stroke-linecap="round" stroke-linejoin="round"/><path d="M65.827 58.333H9.617a5.287 5.287 0 01-5.286-5.286V16.7a5.286 5.286 0 015.286-5.286h56.21a5.286 5.286 0 015.287 5.286v36.346a5.286 5.286 0 01-5.287 5.286v0zm-58.313-7.82H67.93M44.982 63.498c0 5.166 9.209 7.336 9.209 7.336H21.253s9.209-2.17 9.209-7.336" stroke="#464646" stroke-miterlimit="10" stroke-linecap="round" stroke-linejoin="round"/><path d="M32.579 32.496L25.122 42h-4.57l4.122-5.483h1.362v-1.828l3.354-4.45a5.857 5.857 0 113.189 2.257z" stroke="#D90002" stroke-linecap="round" stroke-linejoin="round"/><path d="M33.383 32.66l-.265 3.226 1.819 1.819 1.946-1.938L43.4 42l10.052-10.052-6.397-6.397 2.102-2.066-1.818-1.818-8.508.694" stroke="#D90002" stroke-linecap="square" stroke-linejoin="round"/></svg>
